src/lib/packages/icons/src/assets/filled/eye-closed.svg

<svg width="24" height="24" viewBox="0 0 24 24" fill="none" xmlns="http://www.w3.org/2000/svg">
<path d="M21.948 9.31596C21.936 9.35296 21.2291 11.3732 19.3291 13.1832L20.833 15.4461C21.139 15.9061 21.014 16.5271 20.554 16.8331C20.383 16.9461 20.192 17 20.001 17C19.678 17 19.359 16.843 19.167 16.554L17.749 14.42C17.071 14.848 16.289 15.2121 15.407 15.4891L15.971 17.7601C16.104 18.2961 15.778 18.839 15.242 18.972C15.161 18.992 15.08 19.001 15 19.001C14.552 19.001 14.144 18.697 14.03 18.242L13.4509 15.9131C12.9889 15.9681 12.509 16.001 12 16.001C11.491 16.001 11.0111 15.9681 10.5491 15.9131L9.96998 18.242C9.85698 18.697 9.44901 19.001 9.00001 19.001C8.92001 19.001 8.83907 18.992 8.75807 18.972C8.22207 18.839 7.89606 18.2961 8.02906 17.7601L8.59303 15.4891C7.71203 15.2131 6.92899 14.848 6.25099 14.42L4.83302 16.554C4.64102 16.844 4.32203 17 3.99903 17C3.80903 17 3.61706 16.9461 3.44606 16.8331C2.98606 16.5271 2.861 15.9061 3.167 15.4461L4.67091 13.1832C2.77091 11.3732 2.06401 9.35296 2.05201 9.31596C1.87701 8.79196 2.16009 8.22607 2.68409 8.05107C3.21109 7.87507 3.77201 8.15798 3.94801 8.67998C3.99201 8.80998 4.67295 10.6961 6.53395 12.1861C6.53495 12.1871 6.53612 12.188 6.53712 12.189C7.77812 13.181 9.53701 14 12 14C14.463 14 16.2229 13.182 17.4629 12.189C17.4639 12.188 17.4651 12.1871 17.4661 12.1861C19.3271 10.6961 20.008 8.80998 20.052 8.67998C20.23 8.15798 20.8031 7.88 21.3191 8.054C21.8411 8.23 22.123 8.79296 21.948 9.31596Z" fill="currentColor"/>
</svg>

<svg xmlns="http://www.w3.org/2000/svg" width="24" height="24" fill="none"><path fill="currentColor" d="M21.948 9.316c-.012.037-.719 2.057-2.619 3.867l1.504 2.263a1 1 0 1 1-1.666 1.108l-1.418-2.134a9.977 9.977 0 0 1-2.342 1.07l.564 2.27a1 1 0 1 1-1.941.482l-.58-2.329c-.461.055-.941.088-1.45.088s-.989-.033-1.45-.088l-.58 2.329a1 1 0 0 1-1.94-.482l.563-2.27a9.956 9.956 0 0 1-2.342-1.07l-1.418 2.134a.998.998 0 0 1-1.387.28 1 1 0 0 1-.279-1.388l1.504-2.263c-1.9-1.81-2.607-3.83-2.619-3.867a1 1 0 0 1 1.896-.636c.044.13.725 2.016 2.586 3.506l.003.003C7.778 13.181 9.537 14 12 14s4.223-.818 5.463-1.811l.003-.003c1.861-1.49 2.542-3.376 2.586-3.506.178-.522.751-.8 1.267-.626a.997.997 0 0 1 .629 1.262Z"/></svg>
